thin-line-gold.svg

<svg width="300" height="300" viewBox="0 0 300 300" fill="none" xmlns="http://www.w3.org/2000/svg">
<path d="M105.32 9.16006C105.641 9.33006 109.66 13.1601 109.53 14.1301C106.53 20.5501 101.91 27.4301 99.1505 33.7901C97.7505 37.0001 96.9805 43.3901 95.1005 46.7301C93.8705 48.9201 90.9405 49.6901 90.8105 49.9201C90.6605 50.1801 91.7705 53.5501 91.0505 55.9001C90.2105 58.6501 88.0005 60.4401 87.1605 62.7801C74.8405 96.8701 59.7005 150.69 62.6905 186.28C63.5405 196.39 65.2505 204.22 73.2705 210.86C80.4605 209.55 83.2905 207.46 88.1905 201.81C104.361 183.15 115.541 152.03 131.851 130.47C135.141 126.12 152.04 106.64 156.131 106.25C161.671 105.72 170.48 111.19 176.001 112.72C176.751 113.21 179.561 124.45 179.461 125.08C178.941 128.37 177.65 131.79 177.09 136.27C171.911 177.63 164.58 221.31 170.811 264.16C172.131 266.68 172.721 265.36 174.191 263.8C182.271 255.23 190.941 238.24 200.171 231.78C218.741 218.8 225.251 254.03 230.801 265.17C236.351 276.31 245.201 286.84 258.68 287.8C258.71 295.89 247.451 294.61 241.921 293.03C220.671 286.93 213.331 261.99 205.661 243.8L203.59 244.42L181.201 274.82C173.71 282.91 162.5 284.95 155.67 275.04C143.61 257.54 146.88 204.93 148.81 183.35C150.41 165.43 154.37 147.67 156.68 129.8C154.51 129.29 154.46 131.01 153.47 132.08C135.55 151.45 124.1 182.13 109.52 204.13C92.4305 229.91 63.3405 242.5 47.3005 207.69C34.4205 179.74 45.3705 125.79 52.8205 96.3801C60.1405 67.5101 70.3005 40.6201 85.7005 16.0501C88.0405 12.3101 89.3205 5.40006 95.1205 5.82006C95.8205 5.87006 104.48 8.72006 105.35 9.17006L105.32 9.16006ZM87.1605 15.8201C86.1705 16.5201 87.7005 17.1901 88.1805 17.7801C89.1705 17.1201 87.7105 16.4601 87.1605 15.8201ZM100.661 28.7901C100.801 28.6401 101.821 25.1401 101.661 24.8001C100.211 24.5201 99.9405 27.2701 99.6805 28.7901C100 28.7401 100.531 28.9301 100.661 28.7901ZM86.6605 56.7901V54.8001H85.6805V56.7901H86.6605ZM80.1705 55.8001V56.8001C80.8205 56.4701 80.8205 56.1301 80.1705 55.8001ZM68.1705 102.8V103.8C68.8205 103.47 68.8205 103.13 68.1705 102.8ZM64.1705 127.8V128.8C64.8205 128.47 64.8205 128.13 64.1705 127.8ZM136.67 131.81H134.68V133.8L136.67 131.81ZM62.1705 135.8V136.8C62.8205 136.47 62.8205 136.13 62.1705 135.8ZM56.6605 146.8L57.6605 141.8L54.6905 145.31L56.6505 146.8H56.6605ZM138.66 143.79V141.8H137.68V143.79H138.66ZM130.66 142.81H128.67V143.79H130.66V142.81ZM132.17 147.8V148.8C132.82 148.47 132.82 148.13 132.17 147.8ZM49.1705 151.8V152.8C49.8205 152.47 49.8205 152.13 49.1705 151.8ZM171.171 155.8V156.8C171.82 156.47 171.82 156.13 171.171 155.8ZM59.1705 156.8V157.8C59.8205 157.47 59.8205 157.13 59.1705 156.8ZM52.1705 163.8V164.8C52.8205 164.47 52.8205 164.13 52.1705 163.8ZM169.17 166.8V167.8C169.82 167.47 169.82 167.13 169.17 166.8ZM59.6605 171.79V169.8H58.6805V171.79H59.6605ZM168.17 184.8V185.8C168.82 185.47 168.82 185.13 168.17 184.8Z" fill="#DFD4C3"/>
</svg>

<?xml version="1.0" encoding="UTF-8"?>
<svg id="Layer_1" data-name="Layer 1" xmlns="http://www.w3.org/2000/svg" viewBox="0 0 300 300">
  <defs>
    <style>
      .cls-1 {
        fill: #e0d4c4;
      }
    </style>
  </defs>
  <path class="cls-1" d="M105.32,9.16c.32.17,4.34,4,4.21,4.97-3,6.42-7.62,13.3-10.38,19.66-1.4,3.21-2.17,9.6-4.05,12.94-1.23,2.19-4.16,2.96-4.29,3.19-.15.26.96,3.63.24,5.98-.84,2.75-3.05,4.54-3.89,6.88-12.32,34.09-27.46,87.91-24.47,123.5.85,10.11,2.56,17.94,10.58,24.58,7.19-1.31,10.02-3.4,14.92-9.05,16.17-18.66,27.35-49.78,43.66-71.34,3.29-4.35,20.19-23.83,24.28-24.22,5.54-.53,14.35,4.94,19.87,6.47.75.49,3.56,11.73,3.46,12.36-.52,3.29-1.81,6.71-2.37,11.19-5.18,41.36-12.51,85.04-6.28,127.89,1.32,2.52,1.91,1.2,3.38-.36,8.08-8.57,16.75-25.56,25.98-32.02,18.57-12.98,25.08,22.25,30.63,33.39s14.4,21.67,27.88,22.63c.03,8.09-11.23,6.81-16.76,5.23-21.25-6.1-28.59-31.04-36.26-49.23l-2.07.62-22.39,30.4c-7.49,8.09-18.7,10.13-25.53.22-12.06-17.5-8.79-70.11-6.86-91.69,1.6-17.92,5.56-35.68,7.87-53.55-2.17-.51-2.22,1.21-3.21,2.28-17.92,19.37-29.37,50.05-43.95,72.05-17.09,25.78-46.18,38.37-62.22,3.56-12.88-27.95-1.93-81.9,5.52-111.31,7.32-28.87,17.48-55.76,32.88-80.33,2.34-3.74,3.62-10.65,9.42-10.23.7.05,9.36,2.9,10.23,3.35ZM87.16,15.82c-.99.7.54,1.37,1.02,1.96.99-.66-.47-1.32-1.02-1.96ZM100.66,28.79c.14-.15,1.16-3.65,1-3.99-1.45-.28-1.72,2.47-1.98,3.99.32-.05.85.14.98,0ZM86.66,56.79v-1.99h-.98v1.99h.98ZM80.17,55.8v1c.65-.33.65-.67,0-1ZM68.17,102.8v1c.65-.33.65-.67,0-1ZM64.17,127.8v1c.65-.33.65-.67,0-1ZM136.67,131.81h-1.99s0,1.99,0,1.99l1.99-1.99ZM62.17,135.8v1c.65-.33.65-.67,0-1ZM56.66,146.8l1-5-2.97,3.51,1.96,1.49ZM138.66,143.79v-1.99h-.98v1.99h.98ZM130.66,142.81h-1.99v.98h1.99v-.98ZM132.17,147.8v1c.65-.33.65-.67,0-1ZM49.17,151.8v1c.65-.33.65-.67,0-1ZM171.17,155.8v1c.65-.33.65-.67,0-1ZM59.17,156.8v1c.65-.33.65-.67,0-1ZM52.17,163.8v1c.65-.33.65-.67,0-1ZM169.17,166.8v1c.65-.33.65-.67,0-1ZM59.66,171.79v-1.99h-.98v1.99h.98ZM168.17,184.8v1c.65-.33.65-.67,0-1Z"/>
</svg>
